static/assets/img/icons/theme/general/lock.svg

<svg height="24" viewBox="0 0 24 24" width="24" xmlns="http://www.w3.org/2000/svg"><path d="m7 10v-2c0-2.76142375 2.23857625-5 5-5 2.7614237 0 5 2.23857625 5 5v2h1c1.1045695 0 2 .8954305 2 2v6c0 1.1045695-.8954305 2-2 2h-12c-1.1045695 0-2-.8954305-2-2v-6c0-1.1045695.8954305-2 2-2zm5-5c-1.6568542 0-3 1.34314575-3 3v2h6v-2c0-1.65685425-1.3431458-3-3-3z" fill-rule="evenodd"/></svg>

<svg width="24px" height="24px" viewBox="0 0 24 24" version="1.1" xmlns="http://www.w3.org/2000/svg" xmlns:xlink="http://www.w3.org/1999/xlink">
    <title>Icon For Lock</title>
    <defs>
        <polygon points="0 0 24 0 24 24 0 24"></polygon>
    </defs>
    <g stroke="none" stroke-width="1" fill="none" fill-rule="evenodd">
        <mask fill="white">
            <use xlink:href="#path-1"></use>
        </mask>
        <g></g>
        <path d="M7,10 L7,8 C7,5.23857625 9.23857625,3 12,3 C14.7614237,3 17,5.23857625 17,8 L17,10 L18,10 C19.1045695,10 20,10.8954305 20,12 L20,18 C20,19.1045695 19.1045695,20 18,20 L6,20 C4.8954305,20 4,19.1045695 4,18 L4,12 C4,10.8954305 4.8954305,10 6,10 L7,10 Z M12,5 C10.3431458,5 9,6.34314575 9,8 L9,10 L15,10 L15,8 C15,6.34314575 13.6568542,5 12,5 Z" fill="#000000"></path>
    </g>
</svg>
